X:389
T:Vallja E Tri Motrave
Z:Jack Campin, http://www.campin.me.uk/
F:Jack Campin's Nine-Note Tunebook
% last edit 03-02-2013
C:Kosovo trad, after Hajdar Dushi on LP 
D:Jugoton
D:http://uk.youtube.com/watch?v=IOb1CEEE2hs
M:C|
L:1/8
Q:1/2=96
K:EPhr ^G
GAGF GFGA|BAGF EDEF|GAGF GFGA|   BAGF E4 :|
BcBA BABc|dcBA GFGA|BcBA BABc|   dcBA G4 :|
GAGF GFGA|BAGF EDEF|GAGF GFGA|   BAGF E4 :|
Q:1/2=100
B2c2-c2B2|dcB2 dcB2|A2B2-B2A2|   cBA2 cBA2|
G2A2-A2G2|BAG2 BAG2|BcBA BAGF|[1 EFGA B4 :|\
                              [2 E8      ||
Q:1/2=104
AB2c BcBc|dcBc A4  |AB2c BcBc|   dcBc A4  |
GA2B dcBA|cBAG F4  |GA2B dcBA|   cBAG F4  |
FG2A BAGF|E8      ::\
[Q:1/2=108]\
dcBA cBAG|BAGF AGFE|
                    DEFG GAB2|\
dcBA cBAG|BAGF AGFE|E8      :|
Q:1/2=112
GAGF GFGA|BAGF EDEF|GAGF GFGA|   BAGF E4 :|


% == Italian songs and dances =============================================== 

